svgs/sharp-duotone-light/rectangle-terminal.svg

<svg xmlns="http://www.w3.org/2000/svg" viewBox="0 0 512 512"><!--! Font Awesome Pro 7.1.0 by @fontawesome - https://fontawesome.com License - https://fontawesome.com/license (Commercial License) Copyright 2025 Fonticons, Inc. --><path opacity=".4" fill="currentColor" d="M32 96l0 320 448 0 0-320-448 0zm57.4 64l22.6-22.6 11.3 11.3 96 96 11.3 11.3-11.3 11.3-96 96-11.3 11.3-22.6-22.6 11.3-11.3 84.7-84.7-84.7-84.7-11.3-11.3zM208 336l208 0 0 32-208 0 0-32z"/><path fill="currentColor" d="M480 96l0 320-448 0 0-320 448 0zM32 64l-32 0 0 384 512 0 0-384-480 0zM208 336l0 32 208 0 0-32-208 0zM123.3 148.7l-11.3-11.3-22.6 22.6 11.3 11.3 84.7 84.7-84.7 84.7-11.3 11.3 22.6 22.6 11.3-11.3 96-96 11.3-11.3-11.3-11.3-96-96z"/></svg>

<svg xmlns="http://www.w3.org/2000/svg" viewBox="0 0 512 512"><!--! Font Awesome Pro 6.7.2 by @fontawesome - https://fontawesome.com License - https://fontawesome.com/license (Commercial License) Copyright 2024 Fonticons, Inc. --><defs><style>.fa-secondary{opacity:.4}</style></defs><path class="fa-secondary" d="M32 64l0 384 448 0 0-384L32 64zm57.4 96L112 137.4l11.3 11.3 96 96L230.6 256l-11.3 11.3-96 96L112 374.6 89.4 352l11.3-11.3L185.4 256l-84.7-84.7L89.4 160zM208 352l16 0 176 0 16 0 0 32-16 0-176 0-16 0 0-32z"/><path class="fa-primary" d="M480 64l0 384L32 448 32 64l448 0zM32 32L0 32 0 64 0 448l0 32 32 0 448 0 32 0 0-32 0-384 0-32-32 0L32 32zM89.4 160l11.3 11.3L185.4 256l-84.7 84.7L89.4 352 112 374.6l11.3-11.3 96-96L230.6 256l-11.3-11.3-96-96L112 137.4 89.4 160zM224 352l-16 0 0 32 16 0 176 0 16 0 0-32-16 0-176 0z"/></svg>
